X:1
T:Savior, Like a Shepherd Lead Us
T:Text: Attr. Dorothy A. Thrupp (1779-1847); Hymns for the Young, 1836 Tune: William B. Bradbury (1816-1868)
T:87 87D BRADBURY www.hymnary.org/text/savior_like_a_shepherd_lead_us
T:Savior, Like a Shepherd Lead Us
T:This hymn is in the public domain.  You may freely use this score for personal and congregational worship.  I f you reproduce the score, please credit Hymnary.org as the source. 
T:This hymn is in the public domain.  You may freely use this score for personal and congregational worship.  I f you reproduce the score, please credit Hymnary.org as the source. 
Z:This hymn is in the public domain.  You may freely use this score for personal and congregational worship.  I f you reproduce the score, please credit Hymnary.org as the source.
%%score ( 1 2 ) ( 3 4 )
L:1/8
M:4/4
K:D
V:1 treble nm="Piano" snm="Pno."
V:2 treble 
V:3 bass nm="Piano" snm="Pno."
V:4 bass 
V:1
 [DF]2 [DF]2 [DF][CE][DF][EG] | (A2 d2) (([FA]2 [DF]2)) | [CE]2 [DF]2 [EG][GB][FA][EG] | [DF]8 | %4
w: 3~Thou hast pro- mised to re-|ceive _ us, _|poor and sin- ful though we|be;|
w: 1~Sa- vior, like a shep- herd|lead _ us, _|much we need thy ten- der|care;|
w: 2~We are thine, do thou be-|friend _ us, _|be the guar- dian of our|way;|
 [DF]2 [DF]2 [DF][CE][DF][EG] | (A2 d2) (([FA]2 [DF]2)) | [CE]2 [DF]2 [EG][GB][FA][EG] | [DF]6 | %8
w: thou hast mer- cy to re-|lieve _ us, _|grace to cleanse, and power to|free:|
w: in thy plea- sant pas- tures|feed _ us, _|for our use thy folds pre-|pare:|
w: keep thy flock, from sin de-|fend _ us, _|seek us when we go as-|tray:|
 [FA][FA] | [GB]2 [Bd]4 [Ac][GB] | [FA]2 [DF]4 [DF][DF] | [CE]2 [GB]2 [FA]2 [EG]2 | [DF]6 | %13
w: Bles- sed|Je- sus, bles- sed|Je- sus, ear- ly|let us turn to|thee;|
w: Bles- sed|Je- sus, bles- sed|Je- sus, thou hast|bought us, thine we|are;|
w: Bles- sed|Je- sus, bles- sed|Je- sus, hear, O|hear us when we|pray;|
 [FA][FA] | [GB]2 [Bd]4 [Ac][GB] | [FA]2 [Fd]4 DE | [DF]2 [FA]2 [EG]3 [CE] | [DD]8 |] %18
w: bles- sed|Je- sus, bles- sed|Je- sus, ear- ly|let us turn to|thee.|
w: bles- sed|Je- sus, bles- sed|Je- sus, thou hast|bought us, thine we|are.|
w: bles- sed|Je- sus, bles- sed|Je- sus, hear, O|hear us when we|pray.|
V:2
 x8 | F4 x4 | x8 | x8 | x8 | F4 x4 | x8 | x6 | x2 | x8 | x8 | x8 | x6 | x2 | x8 | x6 DD | x8 | %17
 x8 |] %18
V:3
 [D,A,]2 [D,A,]2 A,A,[F,A,][E,A,] | [D,A,]4 (D2 A,2) | %2
 [A,,A,]2 [A,,A,]2 [A,,A,][A,,A,][A,,A,][A,,A,] | [D,A,]8 | [D,A,]2 [D,A,]2 A,A,[F,A,][E,A,] | %5
 [D,A,]4 (D2 A,2) | [A,,A,]2 [A,,A,]2 [A,,A,][A,,A,][A,,A,][A,,A,] | [D,A,]6 | [D,D][D,D] | %9
 [G,D]2 [G,D]4 [G,D][G,D] | [D,D]2 [D,A,]4 [D,A,][D,A,] | [A,,A,]2 [A,,A,]2 [B,,A,]2 [C,A,]2 | %12
 [D,A,]6 | [D,D][D,D] | [G,D]2 [G,D]4 [G,D][G,D] | [D,D]2 [D,A,]4 [D,F,][D,G,] | %16
 [D,A,]2 [D,A,]2 [A,,A,]3 [A,,G,] | [D,F,]8 |] %18
V:4
 x4 D,G, x2 | x4 D,4 | x8 | x8 | x4 D,G, x2 | x4 D,4 | x8 | x6 | x2 | x8 | x8 | x8 | x6 | x2 | x8 | %15
 x8 | x8 | x8 |] %18

